X:410
T: FRISCH AUF INS WEITE FELD
N: E1602
O: Europa, Mitteleuropa, Deutschland, Schlesien
R: Staende -, Handwerker -, Gesellen - Lied; Wanderschaft
M: 2/4
L: 1/16
K: Bb
F2 | B2F2B2c2 | d6
B2 | d2d2d2f2 | e3dc2
e2 | d2d2c2B2 | c4z2
c2 | c2c2d2B2 | A3Bc2
c2 | c2c2d2B2 | A3Bc2
f2 | d2d2c2c2 | B4z2

